src/assets/outline/Lock1.svg

<svg width="24" height="24" viewBox="0 0 24 24"  xmlns="http://www.w3.org/2000/svg">
<path d="M18 10.75C17.59 10.75 17.25 10.41 17.25 10V8C17.25 4.85 16.36 2.75 12 2.75C7.64 2.75 6.75 4.85 6.75 8V10C6.75 10.41 6.41 10.75 6 10.75C5.59 10.75 5.25 10.41 5.25 10V8C5.25 5.1 5.95 1.25 12 1.25C18.05 1.25 18.75 5.1 18.75 8V10C18.75 10.41 18.41 10.75 18 10.75Z" />
<path d="M17 22.75H7C2.59 22.75 1.25 21.41 1.25 17V15C1.25 10.59 2.59 9.25 7 9.25H17C21.41 9.25 22.75 10.59 22.75 15V17C22.75 21.41 21.41 22.75 17 22.75ZM7 10.75C3.42 10.75 2.75 11.43 2.75 15V17C2.75 20.57 3.42 21.25 7 21.25H17C20.58 21.25 21.25 20.57 21.25 17V15C21.25 11.43 20.58 10.75 17 10.75H7Z" />
<path d="M8 16.9999C7.87 16.9999 7.74 16.9699 7.62 16.9199C7.49 16.8699 7.39001 16.7999 7.29001 16.7099C7.11001 16.5199 7 16.2699 7 15.9999C7 15.8699 7.02999 15.7399 7.07999 15.6199C7.12999 15.4899 7.20001 15.3899 7.29001 15.2899C7.39001 15.1999 7.49 15.1299 7.62 15.0799C7.98 14.9199 8.42999 15.0099 8.70999 15.2899C8.79999 15.3899 8.87001 15.4999 8.92001 15.6199C8.97001 15.7399 9 15.8699 9 15.9999C9 16.2599 8.88999 16.5199 8.70999 16.7099C8.51999 16.8899 8.26 16.9999 8 16.9999Z" />
<path d="M12 16.9999C11.74 16.9999 11.48 16.8899 11.29 16.7099C11.11 16.5199 11 16.2699 11 15.9999C11 15.8699 11.02 15.7399 11.08 15.6199C11.13 15.4999 11.2 15.3899 11.29 15.2899C11.52 15.0599 11.87 14.9499 12.19 15.0199C12.26 15.0299 12.32 15.0499 12.38 15.0799C12.44 15.0999 12.5 15.1299 12.56 15.1699C12.61 15.1999 12.66 15.2499 12.71 15.2899C12.8 15.3899 12.87 15.4999 12.92 15.6199C12.97 15.7399 13 15.8699 13 15.9999C13 16.2699 12.89 16.5199 12.71 16.7099C12.66 16.7499 12.61 16.7899 12.56 16.8299C12.5 16.8699 12.44 16.8999 12.38 16.9199C12.32 16.9499 12.26 16.9699 12.19 16.9799C12.13 16.9899 12.06 16.9999 12 16.9999Z" />
<path d="M16 16.9999C15.73 16.9999 15.48 16.8899 15.29 16.7099C15.2 16.6099 15.13 16.4999 15.08 16.3799C15.03 16.2599 15 16.1299 15 15.9999C15 15.7399 15.11 15.4799 15.29 15.2899C15.34 15.2499 15.39 15.2099 15.44 15.1699C15.5 15.1299 15.56 15.0999 15.62 15.0799C15.68 15.0499 15.74 15.0299 15.8 15.0199C16.13 14.9499 16.47 15.0599 16.71 15.2899C16.89 15.4799 17 15.7299 17 15.9999C17 16.1299 16.97 16.2599 16.92 16.3799C16.87 16.5099 16.8 16.6099 16.71 16.7099C16.52 16.8899 16.26 16.9999 16 16.9999Z" />
</svg>

<?xml version="1.0" encoding="UTF-8"?>
<svg width="24" height="24" viewBox="0 0 24 24" xmlns="http://www.w3.org/2000/svg">
 <path d="m18 10.75c-0.41 0-0.75-0.34-0.75-0.75v-2c0-3.15-0.89-5.25-5.25-5.25s-5.25 2.1-5.25 5.25v2c0 0.41-0.34 0.75-0.75 0.75s-0.75-0.34-0.75-0.75v-2c0-2.9 0.7-6.75 6.75-6.75s6.75 3.85 6.75 6.75v2c0 0.41-0.34 0.75-0.75 0.75z"/>
 <path d="m17 22.75h-10c-4.41 0-5.75-1.34-5.75-5.75v-2c0-4.41 1.34-5.75 5.75-5.75h10c4.41 0 5.75 1.34 5.75 5.75v2c0 4.41-1.34 5.75-5.75 5.75zm-10-12c-3.58 0-4.25 0.68-4.25 4.25v2c0 3.57 0.67 4.25 4.25 4.25h10c3.58 0 4.25-0.68 4.25-4.25v-2c0-3.57-0.67-4.25-4.25-4.25h-10z"/>
 <path d="m8 17c-0.13 0-0.26-0.03-0.38-0.08-0.13-0.05-0.22999-0.12-0.32999-0.21-0.18-0.19-0.29001-0.44-0.29001-0.71 0-0.13 0.02999-0.26 0.07999-0.38 0.05-0.13 0.12002-0.23 0.21002-0.33 0.1-0.09 0.19999-0.16 0.32999-0.21 0.36-0.16 0.80999-0.07 1.09 0.21 0.09 0.1 0.16002 0.21 0.21002 0.33s0.07999 0.25 0.07999 0.38c0 0.26-0.11001 0.52-0.29001 0.71-0.19 0.18-0.44999 0.29-0.70999 0.29z"/>
 <path d="m12 17c-0.26 0-0.52-0.11-0.71-0.29-0.18-0.19-0.29-0.44-0.29-0.71 0-0.13 0.02-0.26 0.08-0.38 0.05-0.12 0.12-0.23 0.21-0.33 0.23-0.23 0.58-0.34 0.9-0.27 0.07 0.01 0.13 0.03 0.19 0.06 0.06 0.02 0.12 0.05 0.18 0.09 0.05 0.03 0.1 0.08 0.15 0.12 0.09 0.1 0.16 0.21 0.21 0.33s0.08 0.25 0.08 0.38c0 0.27-0.11 0.52-0.29 0.71l-0.15 0.12c-0.06 0.04-0.12 0.07-0.18 0.09-0.06 0.03-0.12 0.05-0.19 0.06-0.06 0.01-0.13 0.02-0.19 0.02z"/>
 <path d="m16 17c-0.27 0-0.52-0.11-0.71-0.29-0.09-0.1-0.16-0.21-0.21-0.33s-0.08-0.25-0.08-0.38c0-0.26 0.11-0.52 0.29-0.71l0.15-0.12c0.06-0.04 0.12-0.07 0.18-0.09 0.06-0.03 0.12-0.05 0.18-0.06 0.33-0.07 0.67 0.04 0.91 0.27 0.18 0.19 0.29 0.44 0.29 0.71 0 0.13-0.03 0.26-0.08 0.38-0.05 0.13-0.12 0.23-0.21 0.33-0.19 0.18-0.45 0.29-0.71 0.29z"/>
</svg>
